X:466
L:1/8
M:2/4
K:G
 D2 | G2 G>G | G2 B>A | G>A G>E | (D2 B) | c>c c>c | B2 G>B | d>d d>d | d3 || (c>d) | e>e c>c | 
 d2 B>B | c>B c>d | B2 G>G | A2 d>c | c>B A>G | E>F G>D | G2 || D2 | G2 G2 | G4 | G2 F>E | D4 | 
 c2 c>c | B2 G>B | d2 d2 | !fermata!d2 || c>d | e2 c>c | d2 B>B | c>B c>d | B2 G>G | A2 d>c | 
 cB AG | E>F GD | G2 ||

